X: 7915
T: Concert, The
R: reel
M: 4/4
K: Adorian
|:BAGB AE~E2|GABG ~A3B|dBAB G3B|d[gfe triplet] dBAc|
BAGB AE~E2|GABG ABcd|ea~a2 gedB|1 GBdB BAAG:|2 GBdB BAA2||
|:ea~a2 ea~a2|edef gedB|degb a2ga|bgab ged2|
ea~a2 ea~a2|edef gedB|G3e d2ge|1 dBGA BAA2:|2 dBGA BAdB||

